la/file-medical-alt-solid.svg

<svg xmlns="http://www.w3.org/2000/svg" viewBox="0 0 32 32" height="1em" width="1em">
  <path d="M 6 3 L 6 14 L 7.3671875 14 L 8 12.419922 L 8 5 L 18 5 L 18 11 L 24 11 L 24 27 L 8 27 L 8 21.246094 L 7.9472656 21.193359 L 6.7558594 20 L 6 20 L 6 29 L 26 29 L 26 9.59375 L 25.71875 9.28125 L 19.71875 3.28125 L 19.40625 3 L 6 3 z M 20 6.4375 L 22.5625 9 L 20 9 L 20 6.4375 z M 10.96875 10.386719 L 8.6328125 16.21875 L 8.4140625 16 L 2 16 L 2 18 L 7.5859375 18 L 9.3632812 19.78125 L 11.03125 15.613281 L 14.03125 22.613281 L 16.101562 17.4375 L 16.382812 18 L 18.269531 18 C 18.628531 18.617 19.286 19 20 19 C 21.105 19 22 18.105 22 17 C 22 15.895 21.105 15 20 15 C 19.285 15 18.624531 15.383 18.269531 16 L 17.617188 16 L 15.898438 12.5625 L 13.96875 17.386719 L 10.96875 10.386719 z"/>
</svg>

<svg xmlns="http://www.w3.org/2000/svg" viewBox="0 0 32 32" height="1em" width="1em">
  <path d="M6 3v11h1.367L8 12.42V5h10v6h6v16H8v-5.754l-.053-.053L6.756 20H6v9h20V9.594l-.281-.313-6-6L19.406 3H6zm14 3.438L22.563 9H20V6.437zm-9.031 3.949-2.336 5.832L8.414 16H2v2h5.586l1.777 1.781 1.668-4.168 3 7 2.07-5.175.282.562h1.887a2 2 0 1 0 0-2h-.653l-1.719-3.438-1.93 4.825-3-7z"/>
</svg>
